X:1
T:Title
%%score { ( 1 3 ) | 2 }
L:1/8
M:4/4
K:Ab
V:1 treble nm="Grand Piano"
V:3 treble 
V:2 bass 
V:1
 z4 z2[Q:1/4=100] [A,C][B,D] | [CE]2 [Ec]2 [B,=EG]2 [B,EG][DEB] | %2
 [CFA]>[DFB] [C=EA][B,EG] [A,F]2 [G,DG][DA] | [=Dc]2 [DB]>[DF] c2 B>F | B6 C[B,D] | %5
 [CE]2 [Ec]2 [B,=EG]2 [B,EG][DEB] | [CFA]>[DFB] [DFA][A,DF] [A,E]2 [A,E][A,EF] | %7
 [B,EG]2 [B,FB]>[CFA] [B,EG]2 [A,=DF]>[A,DF] | [G,E]6 z2 | e4 e4 | e6 z2 | c4 z4 |[M:3/4] c6 | %13
[M:1/4] c3/2 z/ |[M:4/4] [FAc]2 [_GAc]2 [FAd]2 [FA=d]>[FAd] | z4 z2 A2 | [EAc]4 [DAB]2 [DGB]2 | %17
[M:3/4] [CEA]6 |] %18
V:2
 z4 z2 [A,,E,][A,,E,] | [A,,A,]2 [A,,A,]2 C,2 C,C, | F,>F, C,C, D,2 D,[D,F,] | %3
 [B,,A,]2 [B,,A,]>[B,,A,] [F,A,=D]2 [F,A,D]>[F,B,D] | [E,G,D]6 [A,,E,A,][A,,E,] | %5
 [A,,A,]2 [A,,A,]2 C,2 C,C, | F,>F, D,D, C,2 _C,C, | B,,2 G,,>G,, B,,2 B,,>B,, | E,6 z2 | %9
 [A,,A,]2 [E,,E,]2 [A,,A,]2 [E,,E,]2 | [B,,B,]2 [E,,E,]2 [B,,B,]2 [E,,E,]2 | %11
 [F,,F,]2 [C,,C,]2 [F,,F,]2 [C,,C,]2 |[M:3/4] [G,,G,]2 [C,,C,]2 [G,,G,]2 |[M:1/4] [C,,C,]2 | %14
[M:4/4] [F,,F,]2 [E,,E,]2 [D,,D,]2 [B,,,B,,]2 | [C,,C,]2 [C,B,]2 [D,,D,]2 [F,,F,]2 | %16
 [E,,E,]4 E,2 E,,2 |[M:3/4] A,,2 E,2 A,,2 |] %18
V:3
 x8 | x8 | x8 | x8 | x8 | x8 | x8 | x8 | x8 | E2 [EAc]2 E2 [EAc]2 | [Gd]2 [GBd]>[Gd] [Gd]2 [GBd]2 | %11
 C2 [CA]2 [Cc]2 [CFAc]2 |[M:3/4] [=EB]2 [EGB]>[EG] [EB]2 |[M:1/4] [EB]->[EBc] |[M:4/4] x8 | %15
 [EAe]2 [=EGc]2 [FA]2 =D->[DB] | x8 |[M:3/4] x6 |] %18

